Simply-Purple-Circles/scalable/apps/archive-manager.svg

<svg xmlns="http://www.w3.org/2000/svg" width="48" height="48" viewBox="0 0 12.7 12.7"><path fill="#963996" d="M6.344.073a6.29 6.29 0 0 0-6.29 6.29 6.29 6.29 0 0 0 6.29 6.288 6.29 6.29 0 0 0 6.29-6.289 6.29 6.29 0 0 0-6.29-6.29zm-.27.945v.322h-.82a.267.267 0 0 0-.267.268v.38c0 .148.119.268.267.268h.82v.252c0 .006-.003.01-.003.016v.38c0 .006.003.01.003.016v.236h-.82a.267.267 0 0 0-.267.269v.38c0 .148.119.268.267.268h.82v.222l-.003.015v.38c0 .006.003.01.003.016v.267h-.82a.267.267 0 0 0-.267.269v.38c0 .148.119.268.267.268h.82v1.009a1.049 1.049 0 0 0-.794 1.018v2.143c0 .585.47 1.056 1.055 1.056s1.056-.47 1.056-1.056V7.917c0-.476-.315-.871-.747-1.003v-.08h.802c.148 0 .267-.12.267-.268v-.38a.267.267 0 0 0-.267-.269h-.802V4.96h.798c.149 0 .269-.12.269-.268v-.38a.267.267 0 0 0-.269-.268h-.798v-.871h.798c.149 0 .269-.12.269-.268v-.38a.268.268 0 0 0-.269-.268h-.798v-1.23a5.407 5.407 0 0 1 5.09 5.39 5.407 5.407 0 0 1-5.408 5.407A5.407 5.407 0 0 1 .92 6.416a5.407 5.407 0 0 1 5.155-5.398zm.27 6.406c.29 0 .526.21.526.526a.545.545 0 0 1-.527.527.545.545 0 0 1-.526-.527c0-.316.236-.526.526-.526zm0 1.58c.29 0 .526.21.526.527v.526a.545.545 0 0 1-.527.527.545.545 0 0 1-.526-.527v-.526c0-.316.236-.527.526-.527z"/></svg>

<?xml version="1.0" encoding="UTF-8" standalone="no"?>
<svg
   xmlns:dc="http://purl.org/dc/elements/1.1/"
   xmlns:cc="http://creativecommons.org/ns#"
   xmlns:rdf="http://www.w3.org/1999/02/22-rdf-syntax-ns#"
   xmlns:svg="http://www.w3.org/2000/svg"
   xmlns="http://www.w3.org/2000/svg"
   xmlns:sodipodi="http://sodipodi.sourceforge.net/DTD/sodipodi-0.dtd"
   xmlns:inkscape="http://www.inkscape.org/namespaces/inkscape"
   width="48"
   height="48"
   viewBox="0 0 12.7 12.7"
   version="1.1"
   id="svg4"
   sodipodi:docname="archive-manager.svg"
   inkscape:version="0.92.4 (5da689c313, 2019-01-14)">
  <metadata
     id="metadata10">
    <rdf:RDF>
      <cc:Work
         rdf:about="">
        <dc:format>image/svg+xml</dc:format>
        <dc:type
           rdf:resource="http://purl.org/dc/dcmitype/StillImage" />
        <dc:title></dc:title>
      </cc:Work>
    </rdf:RDF>
  </metadata>
  <defs
     id="defs8" />
  <sodipodi:namedview
     pagecolor="#ffffff"
     bordercolor="#666666"
     borderopacity="1"
     objecttolerance="10"
     gridtolerance="10"
     guidetolerance="10"
     inkscape:pageopacity="0"
     inkscape:pageshadow="2"
     inkscape:window-width="1087"
     inkscape:window-height="480"
     id="namedview6"
     showgrid="false"
     inkscape:zoom="4.9166667"
     inkscape:cx="2.1355932"
     inkscape:cy="24"
     inkscape:window-x="0"
     inkscape:window-y="25"
     inkscape:window-maximized="0"
     inkscape:current-layer="svg4" />
  <path
     d="m 6.344,0.073 a 6.29,6.29 0 0 0 -6.29,6.29 6.29,6.29 0 0 0 6.29,6.288 6.29,6.29 0 0 0 6.29,-6.289 6.29,6.29 0 0 0 -6.29,-6.29 z M 6.074,1.018 V 1.34 H 5.254 A 0.267,0.267 0 0 0 4.987,1.608 v 0.38 c 0,0.148 0.119,0.268 0.267,0.268 h 0.82 v 0.252 c 0,0.006 -0.003,0.01 -0.003,0.016 v 0.38 c 0,0.006 0.003,0.01 0.003,0.016 V 3.156 H 5.254 A 0.267,0.267 0 0 0 4.987,3.425 v 0.38 c 0,0.148 0.119,0.268 0.267,0.268 h 0.82 V 4.295 L 6.071,4.31 v 0.38 c 0,0.006 0.003,0.01 0.003,0.016 V 4.973 H 5.254 A 0.267,0.267 0 0 0 4.987,5.242 v 0.38 c 0,0.148 0.119,0.268 0.267,0.268 h 0.82 V 6.899 A 1.049,1.049 0 0 0 5.28,7.917 v 2.143 c 0,0.585 0.47,1.056 1.055,1.056 0.585,0 1.056,-0.47 1.056,-1.056 V 7.917 C 7.391,7.441 7.076,7.046 6.644,6.914 v -0.08 h 0.802 c 0.148,0 0.267,-0.12 0.267,-0.268 V 6.186 A 0.267,0.267 0 0 0 7.446,5.917 H 6.644 V 4.96 h 0.798 c 0.149,0 0.269,-0.12 0.269,-0.268 V 4.312 A 0.267,0.267 0 0 0 7.442,4.044 H 6.644 V 3.173 h 0.798 c 0.149,0 0.269,-0.12 0.269,-0.268 V 2.525 A 0.268,0.268 0 0 0 7.442,2.257 H 6.644 v -1.23 a 5.407,5.407 0 0 1 5.09,5.39 A 5.407,5.407 0 0 1 6.326,11.824 5.407,5.407 0 0 1 0.92,6.416 5.407,5.407 0 0 1 6.075,1.018 Z m 0.27,6.406 c 0.29,0 0.526,0.21 0.526,0.526 A 0.545,0.545 0 0 1 6.343,8.477 0.545,0.545 0 0 1 5.817,7.95 c 0,-0.316 0.236,-0.526 0.526,-0.526 z m 0,1.58 c 0.29,0 0.526,0.21 0.526,0.527 v 0.526 A 0.545,0.545 0 0 1 6.343,10.584 0.545,0.545 0 0 1 5.817,10.057 V 9.531 c 0,-0.316 0.236,-0.527 0.526,-0.527 z"
     id="path2"
     inkscape:connector-curvature="0"
     style="fill:#963996" />
</svg>
